X: 26462
T: Metsäkukkia
R: waltz
M: 3/4
K: Eminor
G3 F|.E2 E3F|G2F2E2|B3^A Bc|B3G GF|.E2 E3F|G2F2E2|c3B cd|c6|
A3B c2|c2B2A2|BA G3A|B2A2G2|B2 cB ^AB|g4 f2|e3e e2|e2:|
|:e3d|.e2 B3A|.B2 G3F|.G2 E4-|E2A2B2|c3B cd|c3A cA|B2 B^A Bc|B6|
B2A2^G2|A3G F2|G2 GF GA|G2A2^A2|B2 cB ^AB|g4 f2|e3e e2|e2:|
|:e2_e2|d6|e2f2c2|B2 B^A Bc|B4^G2|A2 A^G AB|A3G F2|
G2 GF GA|G2A2^A2|B2 cB ^AB|g4 f2|e3e e2|e2:|

